vessel_track/img/ECA-ico.svg

<svg width="21" height="8" viewBox="0 0 21 8" fill="none" xmlns="http://www.w3.org/2000/svg">
<path d="M0.333557 0.132596H5.74792V1.50276H2.00207V3.22652H5.41643V4.55249H2.00207V6.49724H5.74792V7.8674H0.333557V0.132596Z" fill="white"/>
<path d="M9.93559 8C9.42731 8 8.95954 7.92633 8.53228 7.77901C8.11239 7.63168 7.74775 7.40332 7.43836 7.09392C7.12896 6.77716 6.88587 6.36832 6.70907 5.8674C6.53965 5.36648 6.45493 4.76243 6.45493 4.05525V3.83425C6.45493 3.15654 6.54333 2.57827 6.72012 2.09945C6.90429 1.61326 7.15106 1.21547 7.46046 0.906077C7.77722 0.596685 8.14554 0.368324 8.56543 0.220994C8.99268 0.0736648 9.44941 0 9.93559 0C10.3702 0 10.7791 0.0515654 11.1621 0.154696C11.5452 0.257827 11.8803 0.419889 12.1676 0.640884C12.4623 0.854512 12.698 1.13075 12.8748 1.46961C13.059 1.80847 13.1658 2.20994 13.1953 2.67403H11.4715C11.3905 2.23204 11.2137 1.90792 10.9411 1.70166C10.6686 1.4954 10.3334 1.39227 9.93559 1.39227C9.70723 1.39227 9.48624 1.43278 9.27261 1.51381C9.06635 1.59484 8.88219 1.73112 8.72012 1.92265C8.55806 2.11418 8.42546 2.36464 8.32233 2.67403C8.22657 2.98343 8.17869 3.37017 8.17869 3.83425V4.05525C8.17869 4.54144 8.23025 4.95028 8.33338 5.28177C8.43651 5.60589 8.56911 5.8674 8.73117 6.0663C8.9006 6.25783 9.08845 6.39779 9.29471 6.48619C9.50834 6.56722 9.72197 6.60773 9.93559 6.60773C10.3555 6.60773 10.7017 6.50092 10.9743 6.28729C11.2468 6.0663 11.4126 5.74586 11.4715 5.32597H13.1953C13.1584 5.81215 13.0516 6.22468 12.8748 6.56354C12.698 6.90239 12.466 7.17864 12.1787 7.39227C11.8914 7.60589 11.5562 7.76059 11.1732 7.85635C10.7901 7.95212 10.3776 8 9.93559 8Z" fill="white"/>
<path d="M18.2496 6.28729H15.3877L14.802 7.8674H13.1888L16.0617 0.132596H17.7192L20.5921 7.8674H18.8462L18.2496 6.28729ZM15.896 4.91713H17.7523L16.8241 2.23204L15.896 4.91713Z" fill="white"/>
</svg>

<svg width="21" height="8" fill="none" xmlns="http://www.w3.org/2000/svg"><path d="M.334.133h5.414v1.37H2.002v1.724h3.414v1.325H2.002v1.945h3.746v1.37H.334V.133zM9.936 8a4.28 4.28 0 01-1.404-.221 2.87 2.87 0 01-1.094-.685c-.309-.317-.552-.726-.729-1.227-.17-.5-.254-1.105-.254-1.812v-.22c0-.678.088-1.257.265-1.736.184-.486.431-.884.74-1.193A2.97 2.97 0 018.565.221 4.174 4.174 0 019.935 0c.435 0 .844.052 1.227.155a2.84 2.84 0 011.006.486c.294.214.53.49.707.829.184.338.29.74.32 1.204h-1.723c-.082-.442-.258-.766-.53-.972-.273-.207-.609-.31-1.006-.31-.229 0-.45.04-.663.122-.207.08-.39.217-.553.409a2.257 2.257 0 00-.398.751c-.095.31-.143.696-.143 1.16v.221c0 .486.051.895.154 1.227.104.324.236.585.398.784.17.192.357.332.564.42.213.081.427.122.64.122.42 0 .767-.107 1.04-.32.272-.222.438-.542.497-.962h1.723c-.037.486-.143.899-.32 1.238a2.394 2.394 0 01-.696.828 2.805 2.805 0 01-1.006.464A5.092 5.092 0 019.936 8zm8.314-1.713h-2.862l-.586 1.58h-1.613L16.062.133h1.657l2.873 7.734h-1.746l-.596-1.58zm-2.354-1.37h1.856l-.928-2.685-.928 2.685z" fill="#fff"/></svg>
